gama.ui.shared/icons_svg/light/navigator/folder.library.svg

<svg height="24.755" viewBox="-763.038 -3462.996 24.75 24.755" width="24.75" xmlns="http://www.w3.org/2000/svg"><g fill="none"><path d="m-761.4631-3456.6753 10.08-.48 2.4 3.36 9.12.72v13.44h-21.6z" fill="#fff"/><g fill="#5c76a3"><path d="m-759.6631-3456.621c-.9941 0-1.8.806-1.8 1.8v13.2c0 .9943.8059 1.8 1.8 1.8h18c.9941 0 1.8-.8057 1.8-1.8v-9.6c0-.994-.8059-1.8-1.8-1.8h-6.6c-1.3255 0-2.4-1.0743-2.4-2.4 0-.6626-.53725-1.2-1.2-1.2zm0-1.2h7.8c1.3255 0 2.4 1.0747 2.4 2.4 0 .663.5373 1.2 1.2 1.2h6.6c1.6569 0 3 1.3433 3 3v9.6c0 1.657-1.3431 3-3 3h-18c-1.6569 0-3-1.343-3-3v-13.2c0-1.6567 1.3431-3 3-3z"/><path d="m-743.4631-3446.2157v-.7998c0-.6628-.5373-1.2-1.2-1.2h-4.4c-.88365 0-1.6-.7165-1.6-1.6 0-.4419-.3582-.8-.8-.8h-5.2c-.6627 0-1.2.5372-1.2 1.2v8.8c0 .6625.5373 1.2 1.2 1.2h.8c.6627 0 1.2-.5375 1.2-1.2v-4c0-1.1045.8954-2 2-2h8c.4502 0 .8657.1487 1.2.3998zm0 1.6002c0-.6628-.5373-1.2-1.2-1.2h-8c-.6627 0-1.2.5372-1.2 1.2v4c0 .4502-.1488.8655-.39985 1.2h9.59985c.6627 0 1.2-.5375 1.2-1.2zm-13.2-6.8h5.2c.8837 0 1.6.7165 1.6 1.6 0 .4418.3582.8.8.8h4.4c1.1046 0 2 .8955 2 2v6.4c0 1.1045-.8954 2-2 2h-12c-1.1046 0-2-.8955-2-2v-8.8c0-1.1045.8954-2 2-2z"/></g></g></svg>

<?xml version="1.0" encoding="UTF-8" standalone="no"?>
<!DOCTYPE svg PUBLIC "-//W3C//DTD SVG 1.1//EN" "http://www.w3.org/Graphics/SVG/1.1/DTD/svg11.dtd">
<svg xmlns:xl="http://www.w3.org/1999/xlink" version="1.1" xmlns="http://www.w3.org/2000/svg" xmlns:dc="http://purl.org/dc/elements/1.1/" viewBox="-763.0381 -3462.996 24.750035 24.755277" width="24.750035" height="24.755277">
  <defs/>
  <g id="SOURCES" fill-opacity="1" stroke-dasharray="none" fill="none" stroke="none" stroke-opacity="1">
    <title>SOURCES</title>
    <g id="SOURCES_Light">
      <title>Light</title>
      <g id="Graphic_12611"/>
      <g id="Graphic_12612">
        <path d="M -761.4631 -3456.6753 L -751.3831 -3457.1553 L -748.9831 -3453.7953 L -739.8631 -3453.0753 L -739.8631 -3439.6353 L -761.4631 -3439.6353 Z" fill="white"/>
      </g>
      <g id="Graphic_12613">
        <path d="M -759.6631 -3456.621 C -760.6572 -3456.621 -761.4631 -3455.815 -761.4631 -3454.821 L -761.4631 -3441.621 C -761.4631 -3440.6267 -760.6572 -3439.821 -759.6631 -3439.821 L -741.6631 -3439.821 C -740.669 -3439.821 -739.8631 -3440.6267 -739.8631 -3441.621 L -739.8631 -3451.221 C -739.8631 -3452.215 -740.669 -3453.021 -741.6631 -3453.021 L -748.2631 -3453.021 C -749.5886 -3453.021 -750.6631 -3454.0953 -750.6631 -3455.421 C -750.6631 -3456.0836 -751.20035 -3456.621 -751.8631 -3456.621 Z M -759.6631 -3457.821 L -751.8631 -3457.821 C -750.5376 -3457.821 -749.4631 -3456.7463 -749.4631 -3455.421 C -749.4631 -3454.758 -748.9258 -3454.221 -748.2631 -3454.221 L -741.6631 -3454.221 C -740.0062 -3454.221 -738.6631 -3452.8777 -738.6631 -3451.221 L -738.6631 -3441.621 C -738.6631 -3439.964 -740.0062 -3438.621 -741.6631 -3438.621 L -759.6631 -3438.621 C -761.32 -3438.621 -762.6631 -3439.964 -762.6631 -3441.621 L -762.6631 -3454.821 C -762.6631 -3456.4777 -761.32 -3457.821 -759.6631 -3457.821 Z" fill="#5c76a3"/>
      </g>
      <g id="Graphic_12630">
        <path d="M -743.4631 -3446.2157 L -743.4631 -3447.0155 C -743.4631 -3447.6783 -744.0004 -3448.2155 -744.6631 -3448.2155 L -749.0631 -3448.2155 C -749.94675 -3448.2155 -750.6631 -3448.932 -750.6631 -3449.8155 C -750.6631 -3450.2574 -751.0213 -3450.6155 -751.4631 -3450.6155 L -756.6631 -3450.6155 C -757.3258 -3450.6155 -757.8631 -3450.0783 -757.8631 -3449.4155 L -757.8631 -3440.6155 C -757.8631 -3439.953 -757.3258 -3439.4155 -756.6631 -3439.4155 L -755.8631 -3439.4155 C -755.2004 -3439.4155 -754.6631 -3439.953 -754.6631 -3440.6155 L -754.6631 -3444.6155 C -754.6631 -3445.72 -753.7677 -3446.6155 -752.6631 -3446.6155 L -744.6631 -3446.6155 C -744.2129 -3446.6155 -743.7974 -3446.4668 -743.4631 -3446.2157 Z M -743.4631 -3444.6155 C -743.4631 -3445.2783 -744.0004 -3445.8155 -744.6631 -3445.8155 L -752.6631 -3445.8155 C -753.3258 -3445.8155 -753.8631 -3445.2783 -753.8631 -3444.6155 L -753.8631 -3440.6155 C -753.8631 -3440.1653 -754.0119 -3439.75 -754.26295 -3439.4155 L -744.6631 -3439.4155 C -744.0004 -3439.4155 -743.4631 -3439.953 -743.4631 -3440.6155 L -743.4631 -3444.6155 Z M -756.6631 -3451.4155 L -751.4631 -3451.4155 C -750.5794 -3451.4155 -749.8631 -3450.699 -749.8631 -3449.8155 C -749.8631 -3449.3737 -749.5049 -3449.0155 -749.0631 -3449.0155 L -744.6631 -3449.0155 C -743.5585 -3449.0155 -742.6631 -3448.12 -742.6631 -3447.0155 L -742.6631 -3440.6155 C -742.6631 -3439.511 -743.5585 -3438.6155 -744.6631 -3438.6155 L -756.6631 -3438.6155 C -757.7677 -3438.6155 -758.6631 -3439.511 -758.6631 -3440.6155 L -758.6631 -3449.4155 C -758.6631 -3450.52 -757.7677 -3451.4155 -756.6631 -3451.4155 Z" fill="#5c76a3"/>
      </g>
    </g>
  </g>
</svg>
